X: 35
T: Local Polka #56
S:Bernard Chenery  irtrad-l 2000-10-19
M:2/4
L:1/8
K:D
D>E FA | BA FA | E>F GA | BA FA | D>E FA | BA FA | EF GE | ED D2 :|
d2 cd | BA FA | B2 Bc | BA FA | d2 cd | BA FA | EF GE | ED D2 :|
%%sep 1 1 500
